X:1
T:McKinley
L:1/8
M:2/4
N:Transcribed by John Hartford from the playing of Howdy Forrester (Tenn.),
N:who had the tune from his Uncle Bob
B:Stephen R. Davis - Devil's Box, vol. 22, No. 1, Spring 1988 (p. 41)
Z:AK/Fiddler's Companion
K:C
c/B/|cGEG|c/B/c/d/ cc/d/|c/A/G/F/ E/C/E/G/|D>E DA/c/|
BGDG|B>c BB/c/|BGEG|1 c3:|2[M:5/8] c3 Gc||
[M:2/4]d|e2f2|d>c BG|[M:2/8]cd|[M:2/4]e2f2|d>c B>G|(c2 c>)d|c3e||
g2 ea|g2 c'a|g2 ea|ge/g/fd|
A e/g/ fd|AA/c/ BG|(c2 c>)d|c3

